assets/icons/functional/education/exam.svg

<svg width="32" height="32" viewBox="0 0 32 32" fill="none" xmlns="http://www.w3.org/2000/svg"><g id="Icon-Exam"><g clip-path="url(#clip0_11_4341)"><g id="size=md (32px)"><g id="Exam"><path id="Vector" d="M4 27V7C4 6.73478 4.10536 6.48043 4.29289 6.29289C4.48043 6.10536 4.73478 6 5 6H27C27.2652 6 27.5196 6.10536 27.7071 6.29289C27.8946 6.48043 28 6.73478 28 7V27L24 25L20 27L16 25L12 27L8 25L4 27Z" stroke="#101828" stroke-width="2" stroke-linecap="round" stroke-linejoin="round"/><path id="Vector_2" d="M9 20L13 12L17 20" stroke="#101828" stroke-width="2" stroke-linecap="round" stroke-linejoin="round"/><path id="Vector_3" d="M10 18H16" stroke="#101828" stroke-width="2" stroke-linecap="round" stroke-linejoin="round"/><path id="Vector_4" d="M19 16H24" stroke="#101828" stroke-width="2" stroke-linecap="round" stroke-linejoin="round"/><path id="Vector_5" d="M21.5 13.5V18.5" stroke="#101828" stroke-width="2" stroke-linecap="round" stroke-linejoin="round"/></g></g></g></g><defs><clipPath id="clip0_11_4341"><rect width="32" height="32" rx="5" fill="white"/></clipPath></defs></svg>

<svg xmlns="http://www.w3.org/2000/svg" width="32" height="32" fill="none"><g clip-path="url(#a)" stroke="#101828" stroke-linecap="round" stroke-linejoin="round" stroke-width="2"><path d="M4 27V7a1 1 0 0 1 1-1h22a1 1 0 0 1 1 1v20l-4-2-4 2-4-2-4 2-4-2-4 2Z"/><path d="m9 20 4-8 4 8m-7-2h6m3-2h5m-2.5-2.5v5"/></g><defs><clipPath id="a"><rect width="32" height="32" fill="#fff" rx="5"/></clipPath></defs></svg>
